X: 38918
T: Supermarkets
R: hornpipe
M: 4/4
K: Eminor
|:"Em"EBdB "D"FB(3AGF|"Em"EBdB "C"gf(3edB|"Em"EBdB "D"FB(3AGF|"D"FB(3AGF dB "Em"e2:|
"Em"eBde "D"gf(3edB|"C"eBdb "D"ag(3fed|"Em"eBde "D"gfeg|fdBABdfd|
"Em"eBde "D"gf(3edB|"C"eBdb "D"ag(3fed|"Em"eBde "D"gfeg|fdBA"G"FD"B"GF|"Em"E8|

